X:333
T:The Virginia reel
R:Reel
D:Dervish: Harmony Hill
S:My arrangement from various web files, mostly Norbeck...
Z:Transcription:?, minor arr., chords:Mike Long
M:C|
L:1/8
K:D
"Bm"DBBA B3A|BAdB AFEF|"D"DF~F2 A3B|AFBF AFEF|\
"Bm"DBBA B3A|BAdB ABde|
"D"~f3e defe|"A"dBAF BEE2:|\
|:"D"defe d3A|"Bm"BAFA dAFA|"D"defe defg|
"A"a2bf afeg|\
"D"f2df efdB|"Bm"AF~F2 ABde|"D"~f3e defe|"A"dBAF BEE2:|
